packages/katcn/src/icons/svg/medal-solid.svg

<svg width="24" height="25" viewBox="0 0 24 25" fill="none" xmlns="http://www.w3.org/2000/svg">
<path d="M15.3256 17.9639C14.4884 18.2474 13.5465 18.3419 12.6047 18.3419C11.6628 18.3419 10.7209 18.2474 9.88372 17.9639C9.56977 17.8694 9.25581 17.7749 8.94186 17.6804C8.52326 17.4915 8.31395 17.397 8 17.208V22.3104C8 22.5938 8.2093 22.8773 8.4186 23.0663C8.52326 23.1608 8.73256 23.1608 8.83721 23.1608C9.04651 23.1608 9.15116 23.1608 9.36047 23.0663L12.5 21.3655L15.6395 23.0663C15.9535 23.2553 16.2674 23.2553 16.5814 23.0663C16.8953 22.8773 17 22.6883 17 22.3104V17.208C16.5178 17.4983 15.8647 17.8017 15.3256 17.9639Z" fill="black"/>
<path d="M12.5 16.208C16.6421 16.208 20 12.8501 20 8.70801C20 4.56587 16.6421 1.20801 12.5 1.20801C8.35786 1.20801 5 4.56587 5 8.70801C5 12.8501 8.35786 16.208 12.5 16.208Z" fill="black"/>
</svg>

<svg xmlns="http://www.w3.org/2000/svg" fill="none" viewBox="0 0 24 25"><path fill="#000" d="M15.326 17.964c-.838.283-1.78.378-2.721.378s-1.884-.095-2.721-.378l-.942-.284c-.419-.189-.628-.283-.942-.472v5.102c0 .284.21.567.419.756.104.095.314.095.418.095.21 0 .314 0 .523-.095l3.14-1.7 3.14 1.7a.85.85 0 0 0 .941 0c.314-.189.419-.378.419-.756v-5.102a8 8 0 0 1-1.674.756M12.5 16.208a7.5 7.5 0 1 0 0-15 7.5 7.5 0 0 0 0 15"/></svg>
